X:1
T:Jai par trop longuement
T:Claudin de Sermisy
T:Source : Il primo libro di madrigali a 3 voci---Venetia---A.Gardano---1559. Editor : André Vierendeels (27/10/14).
T:Notes : Original clefs : G2, G2, C4 Original note values have been halved Editorial accidentals above the staff Square bracket indicates ligature Signed "Claudin"
T:Jai par trop longuement
C:Claudin de Sermisy
%%score [ 1 2 3 ]
L:1/8
Q:1/4=120
M:2/2
K:F
V:1 treble nm="Canto 1" snm="C 1"
V:2 treble nm="Canto 2" snm="C 2"
V:3 treble-8 nm="Tenor" snm="T"
V:1
 G4 G2 d2 | d4 e2 d2- | dc BA B2 B2 | A4 F2 G2- | GF B4 A2 | B2 d2 f3 e | d2 c2 B2 A2- | AG G4 F2 | %8
w: Iai par trop|lon- gue- ment|_ _ _ _ _ ay-|||me, ie scay bien|a quoi me te-||
 B2 A3 G G2- | G2 F2 G4 | z4 G4 | G2 d2 d4 | e2 d3 c BA | B2 B2 A4 | F2 G3 F B2- | B2 A2 B2 d2 | %16
w: |* * nir,|ie|suis et veulx|es- tre _ _ _|_ blas- me,|_ _ _ _|* * * cest|
 f3 e d2 c2 | B2 A3 G G2- | G2 F2 B2 A2- | AG G4 F2 | G4 z4 | c4 d3 e | f2 f2 e2 e2 | d4 z4 | z8 | %25
w: le gain qui me|doit ve- * *|||nir,|las, quant ce|vient au sou- ve-|nir||
 g4 g2 g2 | fe dc B2 B2 | A6 A2 | FG AF G2 DE | FG A2 GF ED | E2 E2 D2 d2 | f3 e d2 d2 | %32
w: en pen- sant|ou _ _ _ _ iay|mis le|temps, _ _ _ _ ou _|_ _ jay mis _ _ _|_ le temps, ie|puis bien di- re|
 c2 BA B2 B2 | A2 d2 e2 f2 | d2 z2 z2 A2 | B2 c2 d2 cB | AG AB cd ec | d2 c3 B AG | A2 A2 G2 d2 | %39
w: sans _ _ _ fail-|lir: par- don- nes|moy, par-|don- nes moy, _ _|_ _ _ _ _ _ _ _|* ie _ _ _|me re- pens, par-|
 e2 f2 d2 z2 | z2 A2 B2 c2 | d2 cB AG AB | cd ec d2 c2- | cB AG A2 A2 | G8 |] %45
w: don- nes moy|par- don- nes|moy, _ _ _ _ _ _|_ _ _ _ _ ie|_ _ _ _ me re-|pens.|
V:2
 z8 | z4 G4 | G2 d2 d3 e | f3 e dc B2 |"^b" c2 d2 e4 | d8 | z8 | z2 d2 f3 e | d2 c3 B AG | %9
w: |Iai|par trop lon- gue-|ment _ _ _ _|_ _ ay-|me,||ie scay bien|a quoi _ _ _|
 A2 A2 G4- | G4 z4 | z8 | G4 G2 d2 | d3 e f3 e | dc B2 c2 d2 |"^b" e4 d4- | d4 z4 | z4 z2 d2 | %18
w: me te- nir,|_||ie suis et|veulx _ _ _|_ _ _ es- tre|blas- me,|_|cest|
 f3 e d2 c2- | cB AG A2 A2 | G8 | z4 G4 | A3 B c2 c2 | B2 B2 A2 c2- | c2 BA G2 A2 | GF ED E2 E2 | %26
w: le gain qui me|_ _ _ _ doit ve-|nir,|las,|quant ce vient au|sou- ve- nir, _|_ _ _ _ au|sou- * * * * ve-|
 D2 d2 d2 d2 | f6 f2 | de fd e2 f2- | fe e3 d d2- | d2 c2 d4 | z2 A2 B2 B2 | A2 A2 G2 G2 | %33
w: nir en pen- sant|ou iay|mis _ _ _ _ _|_ _ _ _ _|* le temps,|ie puis bien|di- re sans fail-|
 F4 z2 A2 | B2 c2 A4 | z2 A2 G2 G2 | F3 G AF GA | B2 A3 G G2- |"^#" G2 F2 G4 | z2 A2 B2 c2 | %40
w: lir: par-|don- nes moy,|par- don- nes|moy, _ _ _ _ _|_ ie _ me|_ re- pens,|par- don- nes|
 A4 z2 A2 | G2 G2 F3 G | AF GA B2 A2- |"^#" AG G4 F2 | G8 |] %45
w: moy, par-|don- nes moy, _|_ _ _ _ _ ie-|* * me re-|pens.|
V:3
 z8 | z8 | G4 G2 d2 |"^b" d4 d2 e2- | ed cB c2 c2 | B4 z2 d2 | f3 e d2 c2 | B2 AG d2 d2 | %8
w: ||Iai par trop|lon- gue- ment|_ _ _ _ _ ay-|me ie|scay bien a quoi|me _ _ _ te-|
 G2 A2 F2 G2 | D4 G3 A | B2 c4 B2 | c2 B2 G4 | z4 G4 | G2 d2 d4 |"^b" d2 e3 d cB | c4 B4 | %16
w: nir, a quoi me|te- * *||* * nir,|ie|suis et veulx|es- tre _ _ _|blas- me,|
 z2 d2 f3 e | d2 c2 B2 AG | d2 d2 G2 A2 | F2 G2 D4 | G3 A B2 c2- | c2 BA G3 F | D4 z4 | G4 A3 B | %24
w: c'est le gain|qui me doit _ _|_ ve- nir, qui|me doit ve-|||nir,|las, quant ce|
 c3 d e2 f2 | ed d3 c/B/ c2 | d4 z2 d2 | d2 d2 d4- | d2 d2 c2 d2- | dc BA B4 | A2 A2 B2 B2 | %31
w: vient _ _ au|sou- * * * * ve-|nir en|pen- sant ou|_ iay mis le|_ _ _ _ _|temps, ie puis bien|
 A2 F2 G2 B2 | F4 G4 | D4 z2 d2 | d2 c2 d4 | z2 A2 B2 c2 | d3 c/B/ A2 c2 | G2 A2 F2 G2 | D4 G4 | %39
w: di- re sans _|fail- *|lir: par-|don- nes moy,|par- don- nes|moy, _ _ _ ie|me _ _ _|re- pens,|
 z2 d2 d2 c2 | d4 z2 A2 | B2 c2 d3 c/B/ | A2 c2 G2 A2 | F2 G2 D4 | G8 |] %45
w: par- don- nes|moy, par-|don- nes * * *|* ie me _|_ _ re-|pens.|

